!!!OTL: Der betruegerische Freier Stolz Syburg der wollt' freien gehn
!!!ARE: Europa, Mitteleuropa, Deutschland (BRD), Rheinland, Siebengebirge
!!!YOR: 2, S. 132
!!    1912 gedruckt in Prenzlau
!!!SCT: Q0042C
!!!YEM: Copyright 1995, estate of Helmut Schaffrath.
**kern
*ICvox
*Ivox
*M2/4
*k[]
*a:
{8e
=1
8.a
16b
8ccn
8b
=2
8a
8g#
8a}
{8b
=3
8.ccn
16dd
8ee
8dd
=4
4ccn
8r}
{8ccn
=5
8.b
16ccn
8dd
8b
=6
8ccn
8ee
4ee}
=7
{8.a
16ccn
8b
8a
=8
8g#
8f#
8e}
{8b
=9
8ccn
8ccn
8b
8b
=10
8.ccn
16dd
8ee}
{8dd
=11
8ccn
8a
8.b
16b
=12
4a
8r}
==
!!!AGN: Ballade, Braut - Werbung, Betrug; tragisch, Vierte Zeile = Refrain.
!!!ONB: ESAC (Essen Associative Code) Database: BALLADE
!!!AMT: simple duple
!!!AIN: vox
!!!EED: Helmut Schaffrath
!!!EEV: 1.0
*-
